dist/img/catalog-brand/r_otzovik.svg

<svg width="145" height="31" viewBox="0 0 145 31" fill="none" xmlns="http://www.w3.org/2000/svg">
<g clip-path="url(#clip0_1253_12116)">
<path d="M15.9771 30.5244C24.2973 30.5244 31.0422 23.8087 31.0422 15.5244C31.0422 7.24014 24.2973 0.524414 15.9771 0.524414C7.65695 0.524414 0.912109 7.24014 0.912109 15.5244C0.912109 23.8087 7.65695 30.5244 15.9771 30.5244Z" fill="#CE2457"/>
<path fill-rule="evenodd" clip-rule="evenodd" d="M15.2345 6.50282C10.5639 6.88311 6.89258 10.7778 6.89258 15.5263C6.89258 20.5267 10.9638 24.5803 15.9858 24.5803C21.0078 24.5803 25.079 20.5267 25.079 15.5263C25.079 10.7773 21.4068 6.88225 16.7354 6.50269L16.4904 12.4496C17.9794 12.6899 19.1163 13.9759 19.1163 15.5263C19.1163 17.2478 17.7147 18.6434 15.9858 18.6434C14.2568 18.6434 12.8552 17.2478 12.8552 15.5263C12.8552 13.9764 13.9913 12.6908 15.4795 12.4499L15.2345 6.50282Z" fill="white"/>
<path d="M15.9754 5.86849C17.0594 5.86849 17.9382 4.99354 17.9382 3.91423C17.9382 2.83492 17.0594 1.95996 15.9754 1.95996C14.8914 1.95996 14.0127 2.83492 14.0127 3.91423C14.0127 4.99354 14.8914 5.86849 15.9754 5.86849Z" fill="white"/>
<path d="M51.5599 15.5213C51.5599 17.5873 50.8009 19.256 49.3673 20.6069C47.9336 21.9577 46.1626 22.5934 44.0543 22.5934C41.9459 22.5934 40.2592 21.9577 38.7412 20.6069C37.3919 19.256 36.6328 17.5873 36.6328 15.5213C36.6328 13.4553 37.3919 11.7866 38.8255 10.4358C40.2592 9.08492 42.0302 8.44922 44.0543 8.44922C46.0782 8.44922 47.9336 9.08492 49.3673 10.4358C50.8009 11.7866 51.5599 13.4553 51.5599 15.5213ZM48.7769 15.5213C48.7769 14.3294 48.3552 13.2964 47.4276 12.5017C46.5842 11.7071 45.4036 11.3098 44.0543 11.3098C42.7049 11.3098 41.6086 11.7071 40.6809 12.5017C39.7532 13.2964 39.3315 14.3294 39.3315 15.5213C39.3315 16.7133 39.7532 17.7462 40.6809 18.5408C41.5242 19.3355 42.7049 19.7328 44.0543 19.7328C45.4036 19.7328 46.5842 19.3355 47.4276 18.5408C48.3552 17.7462 48.7769 16.7133 48.7769 15.5213Z" fill="black"/>
<path d="M60.4638 21.9592H57.3434V11.5497H52.5364V9.08643H65.1864V11.5497H60.4638V21.9592Z" fill="black"/>
<path d="M72.1747 22.2799C69.9821 22.2799 68.211 21.9621 66.7774 21.3264V18.7836C68.3798 19.4988 70.0664 19.8167 71.7531 19.8167C73.0181 19.8167 73.9458 19.6578 74.7048 19.3399C75.3794 19.022 75.8011 18.5452 75.8011 17.989C75.8011 16.8766 74.7891 16.3998 72.6808 16.3998H70.0664V14.0954H72.6808C74.4518 14.0954 75.2951 13.6187 75.2951 12.6651C75.2951 11.6321 74.1144 11.1553 71.8374 11.1553C70.3194 11.1553 68.8014 11.4732 67.199 12.1089V9.64556C68.6328 9.08934 70.4037 8.77149 72.5121 8.77149C74.1988 8.77149 75.6325 9.08933 76.8131 9.72503C77.9095 10.3608 78.4998 11.2348 78.4998 12.1883C78.4998 13.6187 77.7408 14.5722 76.3071 15.0489C78.0781 15.6051 79.0058 16.6382 79.0058 18.2274C79.0058 19.4194 78.4155 20.4523 77.1505 21.1675C75.8855 21.9621 74.1988 22.2799 72.1747 22.2799Z" fill="black"/>
<path d="M96.0224 15.5213C96.0224 17.5873 95.2635 19.256 93.83 20.6069C92.3963 21.9577 90.6253 22.5934 88.5168 22.5934C86.4085 22.5934 84.7219 21.9577 83.2038 20.6069C81.7702 19.256 81.0112 17.5873 81.0112 15.5213C81.0112 13.4553 81.7702 11.7866 83.2038 10.4358C84.7219 9.08492 86.4929 8.44922 88.6012 8.44922C90.7095 8.44922 92.4806 9.08492 93.9142 10.4358C95.2635 11.7866 96.0224 13.4553 96.0224 15.5213ZM93.3239 15.5213C93.3239 14.3294 92.9022 13.2964 91.9745 12.5017C91.1313 11.7071 89.9506 11.3098 88.6012 11.3098C87.2519 11.3098 86.1555 11.7071 85.2279 12.5017C84.3002 13.2964 83.8785 14.3294 83.8785 15.5213C83.8785 16.7133 84.3002 17.7462 85.2279 18.5408C86.0712 19.3355 87.2519 19.7328 88.6012 19.7328C89.9506 19.7328 91.1313 19.3355 91.9745 18.5408C92.8179 17.7462 93.3239 16.7133 93.3239 15.5213Z" fill="black"/>
<path d="M106.986 21.9592H98.8056V9.08643H106.564C107.913 9.08643 109.009 9.40428 109.853 9.96054C110.697 10.5168 111.034 11.3908 111.034 12.3443C111.034 12.98 110.865 13.5363 110.527 14.0131C110.19 14.4898 109.768 14.8871 109.178 15.1255C111.034 15.6022 111.961 16.7148 111.961 18.4629C111.961 19.5754 111.539 20.4494 110.612 21.0851C109.768 21.6413 108.587 21.9592 106.986 21.9592ZM101.926 11.3908V14.2514H105.805C106.479 14.2514 106.986 14.0925 107.407 13.8542C107.745 13.6158 107.997 13.2185 107.997 12.8211C107.997 11.8676 107.323 11.3908 105.889 11.3908H101.926ZM101.926 16.4764V19.6549H106.395C107.154 19.6549 107.66 19.4959 108.082 19.2575C108.504 18.9396 108.672 18.6218 108.672 18.0656C108.672 17.5888 108.504 17.1915 108.082 16.8737C107.66 16.5559 107.07 16.4764 106.395 16.4764H101.926Z" fill="black"/>
<path d="M117.778 21.9519H114.826V9.07911H117.947V17.8199L125.621 9.07911H128.573V21.9519H125.453V13.2111L117.778 21.9519Z" fill="black"/>
<path d="M134.939 21.9519H131.819V9.07911H134.939V21.9519Z" fill="black"/>
<path d="M138.23 15.2782L144.482 21.8735H140.446L134.51 15.4371L140.051 9.15968H143.928L138.23 15.2782Z" fill="black"/>
</g>
<defs>
<clipPath id="clip0_1253_12116">
<rect width="145" height="30" fill="white" transform="translate(0 0.524414)"/>
</clipPath>
</defs>
</svg>

<svg width="145" height="31" viewBox="0 0 145 31" fill="none" xmlns="http://www.w3.org/2000/svg"><g clip-path="url(#clip0_1253_12116)"><path d="M15.977 30.524c8.32 0 15.065-6.715 15.065-15 0-8.284-6.745-15-15.065-15S.912 7.24.912 15.524c0 8.285 6.745 15 15.065 15z" fill="#CE2457"/><path fill-rule="evenodd" clip-rule="evenodd" d="M15.235 6.503c-4.671.38-8.342 4.275-8.342 9.023 0 5 4.07 9.054 9.093 9.054 5.022 0 9.093-4.053 9.093-9.054 0-4.749-3.672-8.644-8.344-9.023l-.245 5.947a3.122 3.122 0 012.626 3.076 3.124 3.124 0 01-3.13 3.117 3.124 3.124 0 01-3.13-3.117 3.122 3.122 0 012.623-3.076l-.244-5.947z" fill="#fff"/><path d="M15.975 5.868a1.959 1.959 0 001.963-1.954c0-1.08-.879-1.954-1.963-1.954a1.958 1.958 0 00-1.962 1.954c0 1.08.878 1.954 1.962 1.954z" fill="#fff"/><path d="M51.56 15.521c0 2.066-.76 3.735-2.193 5.086-1.433 1.35-3.204 1.986-5.313 1.986-2.108 0-3.795-.635-5.313-1.986-1.35-1.351-2.108-3.02-2.108-5.086 0-2.066.759-3.734 2.192-5.085 1.434-1.351 3.205-1.987 5.23-1.987 2.023 0 3.879.636 5.312 1.987 1.434 1.35 2.193 3.02 2.193 5.085zm-2.783 0c0-1.192-.422-2.225-1.35-3.02-.843-.794-2.023-1.191-3.373-1.191s-2.445.397-3.373 1.192c-.928.794-1.35 1.827-1.35 3.02 0 1.191.422 2.224 1.35 3.019.843.794 2.024 1.192 3.373 1.192 1.35 0 2.53-.398 3.374-1.192.927-.795 1.349-1.828 1.349-3.02zm11.687 6.439h-3.12V11.55h-4.808V9.086h12.65v2.464h-4.722v10.41zm11.711.32c-2.193 0-3.964-.318-5.398-.954v-2.542c1.603.715 3.29 1.033 4.976 1.033 1.265 0 2.193-.16 2.952-.477.674-.318 1.096-.795 1.096-1.351 0-1.112-1.012-1.59-3.12-1.59h-2.615v-2.304h2.615c1.77 0 2.614-.476 2.614-1.43 0-1.033-1.18-1.51-3.458-1.51-1.518 0-3.036.318-4.638.954V9.646c1.434-.557 3.205-.875 5.313-.875 1.687 0 3.12.318 4.301.954 1.096.636 1.687 1.51 1.687 2.463 0 1.43-.76 2.384-2.193 2.86 1.771.557 2.699 1.59 2.699 3.18 0 1.191-.59 2.224-1.856 2.94-1.265.794-2.951 1.112-4.975 1.112zm23.847-6.759c0 2.066-.759 3.735-2.192 5.086-1.434 1.35-3.205 1.986-5.313 1.986-2.108 0-3.795-.635-5.313-1.986-1.434-1.351-2.193-3.02-2.193-5.086 0-2.066.76-3.734 2.193-5.085 1.518-1.351 3.289-1.987 5.397-1.987 2.109 0 3.88.636 5.313 1.987 1.35 1.35 2.108 3.02 2.108 5.085zm-2.698 0c0-1.192-.422-2.225-1.35-3.02-.843-.794-2.023-1.191-3.373-1.191s-2.445.397-3.373 1.192c-.928.794-1.35 1.827-1.35 3.02 0 1.191.422 2.224 1.35 3.019.843.794 2.024 1.192 3.373 1.192 1.35 0 2.53-.398 3.374-1.192.843-.795 1.349-1.828 1.349-3.02zm13.662 6.439h-8.18V9.085h7.758c1.349 0 2.445.318 3.289.875.844.556 1.181 1.43 1.181 2.383 0 .636-.169 1.192-.507 1.67-.337.476-.759.873-1.349 1.112 1.856.476 2.783 1.589 2.783 3.337 0 1.112-.422 1.986-1.349 2.622-.844.556-2.025.874-3.626.874zm-5.06-10.57v2.861h3.879c.674 0 1.181-.159 1.602-.397.338-.238.59-.635.59-1.033 0-.953-.674-1.43-2.108-1.43h-3.963zm0 5.086v3.179h4.469c.759 0 1.265-.16 1.687-.398.422-.317.59-.635.59-1.191 0-.477-.168-.874-.59-1.192-.422-.318-1.012-.398-1.687-.398h-4.469zm15.852 5.476h-2.952V9.079h3.121v8.74l7.674-8.74h2.952v12.873h-3.12v-8.74l-7.675 8.74zm17.161 0h-3.12V9.079h3.12v12.873z" fill="#000"/><path d="M138.23 15.278l6.252 6.595h-4.036l-5.936-6.436 5.541-6.277h3.877l-5.698 6.118z" fill="#000"/></g><defs><clipPath id="clip0_1253_12116"><path fill="#fff" transform="translate(0 .524)" d="M0 0h145v30H0z"/></clipPath></defs></svg>
